X:1
T:Hosanna, Loud Hosanna
T:Text: Jennette Threlfall, 1873 Tune: Gesangbuch, Wittenberg, 1784
T:76 76 D ELLACOMBE www.hymnary.org/text/hosanna_loud_hosanna_the_little_children
T:Hosanna, Loud Hosanna
T:This hymn is in the public domain. You may freely use this score for personal and congregational worship. If you reproduce the score, please credit Hymnary.org as the source. 
T:This hymn is in the public domain. You may freely use this score for personal and congregational worship. If you reproduce the score, please credit Hymnary.org as the source. 
Z:This hymn is in the public domain. You may freely use this score for personal and congregational worship. If you reproduce the score, please credit Hymnary.org as the source.
%%score ( 1 2 ) ( 3 4 )
L:1/8
M:4/4
K:Ab
V:1 treble nm="SOPRANO ALTO" snm="S. A."
V:2 treble 
V:3 bass nm="TENOR BASS" snm="T. B."
V:4 bass 
V:1
"^1""^2""^3" E2 | A2 GF E2 A2 | (C2 D2) E2 E2 | FG A2 B2 B2 | c6 | E2 | A2 GF E2 A2 | %7
w: Ho-|san- na, * loud ho-|san- * na the|lit- * tle chil- dren|sang;|through|pil- lared _ court and|
w: From|Ol- i- * vet they|fol- * lowed mid|an * ex- ul- tant|crowd,|the|vic- tory * palm branch|
w: "Ho-|san- na * in the|high- * est!" That|an- * cient song we|sing,|for|Christ is * our Re-|
 (C2 D2) E2 E2 | FG A2 A2 G2 | A6 | AB | c2 B2 c2 d2 | (B2 GA) B2 AB | c2 B2 c2 d2 | B6 |1 E2 | %16
w: tem- * ple the|love- * ly an- them|rang.|To *|Je- sus, who had|blessed * * them, close _|fold- ed to his|breast,|the|
w: wav- * ing, and|chant- * ing clear and|loud.|The *|Lord of earth and|heav- * * en rode _|on in low- ly|state,|nor|
w: deem- * er, the|Lord _ of heaven, our|King.|O *|may we ev- er|praise * * him with _|heart and life and|voice,|and|
 A2 GF E2 A2 | (C2 D2) E2 E2 | FG A2 A2 G2 | A6 x2 |] %20
w: chil- dren _ sang their|prais- * es, the|sim- * plest and the|best.|
w: scorned that * lit- tle|chil- * dren should|on * his bid- ding|wait.|
w: in his * bliss- ful|pres- * ence e-|ter- * nal- ly re-|joice.|
V:2
 E2 | A2 GF E2 E2 | A,4 B,2 C2 | D2 E2 F2 E2 | E6 | E2 | A2 GF E2 E2 | A,4 B,2 C2 | D2 CD E2 E2 | %9
 E6 | CD | E2 E2 E2 F2 | E4 E2 CD | E2 E2 E2 F2 | E6 |1 E2 | A2 GF E2 E2 | A,4 B,2 C2 | %18
 D2 CD E2 E2 | E6 x2 |] %20
V:3
 E,2 | A,2 G,F, E,2 A,2 | A,4 G,2 A,2 | A,2 A,2 A,2 G,2 | A,6 | E,2 | A,2 G,F, E,2 A,2 | %7
 A,4 G,2 A,2 | A,2 A,2 B,2 B,2 | C6 | A,2 | A,2 B,2 A,2 A,2 | (G,2 E,F,) G,2 A,2 | %13
 A,2 B,2 A,2 A,2 | G,6 |1 E,2 | A,2 G,F, E,2 A,2 | A,4 G,2 A,2 | A,2 A,2 B,2 B,2 | C6 x2 |] %20
V:4
 E,2 | A,2 G,F, E,2 C,2 | F,4 E,2 A,,2 | D,2 C,2 D,2 E,2 | A,,6 | E,2 | A,2 G,F, E,2 C,2 | %7
 F,4 E,2 A,,2 | D,2 F,2 E,2 E,2 | A,,6 | A,2 | A,2 G,2 A,2 D,2 | E,4 E,2 A,2 | A,2 G,2 A,2 D,2 | %14
 E,6 |1 E,2 | A,2 G,F, E,2 C,2 | F,4 E,2 A,,2 | D,2 F,2 E,2 E,2 | A,,6 x2 |] %20

